src/images/logo-2.svg

<svg fill="none" height="59" viewBox="0 0 231 59" width="231" xmlns="http://www.w3.org/2000/svg"><g fill="#fff"><path d="m17.3319 30.0027-3.8921 20.0391h.0103c3.1344-.3513 5.7073-2.6452 6.3204-5.7417l2.4007-12.1309c.0688-.3513.1446-.6854.2238-1.0195-1.0333-.7957-2.3455-1.2021-3.9472-1.2021-.3823 0-.7508.0207-1.1159.0551z"/><path d="m36.5409 8.9131c-3.031 0-5.6384 2.1527-6.2101 5.1321l-3.5718 18.6372c-.8266-2.0597-1.9805-3.6441-3.4581-4.7463-.0034 0-.0034-.0034-.0069-.0034 1.1849-3.2342 5.0838-27.8887547 5.0838-27.8887547-3.0172 0-5.6073 2.1389247-6.1825 5.0976147l-4.1057 21.14474c-.1067-.0034-.2066-.0103-.3134-.0103-4.2262 0-7.91853 1.5568-11.07009 4.667-3.155 3.1137-5.20783 6.992-6.16535 11.6453-.086108.5511-.196327 1.302-.334101 2.2457-.1377729.9438-.206659 1.8014-.206659 2.5661 0 3.6096 1.00919 6.403 3.02757 8.38 1.87027 1.8255 4.38463 2.7417 7.54993 2.7417 4.6533 0 8.8244-2.3146 12.5202-6.9472l-1.3054 6.403h.0103c3.1447-.3341 5.7279-2.6384 6.3307-5.7452zm-11.2802 30.472c-.0413.434-.1068 1.1091-.1929 2.0218-.7439 3.8232-2.008 7.0196-3.7922 9.589-2.2939 3.3548-5.163 5.0322-8.6005 5.0322-2.442 0-4.27093-.8507-5.47989-2.5488-1.04019-1.488-1.56028-3.4202-1.56028-5.8003 0-.4477.062-1.1469.19288-2.101.12744-.9541.23421-1.6464.31688-2.07.83008-4.1849 2.04937-7.457 3.66476-9.8129 1.94605-2.8037 4.52585-4.3433 7.73945-4.6292.3651-.031.7371-.0517 1.1194-.0517 1.6016 0 2.9139.4064 3.9472 1.2021.5166.3961.9678.8817 1.3433 1.4742.9127 1.4225 1.3708 3.3995 1.3708 5.9242-.0034.7474-.0241 1.3364-.0689 1.7704z"/><path d="m49.2531 38.39c-.3378-2.5775.4626-5.177-.1983-7.7472-.1616-.6242.1175-.9987.8592-1.0574 1.7477-.1322 2.0855.0734 2.1222 1.7844.1175 5.3459.1982 10.6918.2643 16.0378.0221 1.7477-.3304 1.9753-2.0487 1.6155-.6169-.1248-.8739-.3966-.8739-1.0721 0-2.46-.0808-4.9201-.1248-7.3801-.1175-.7196-.1175-1.4539 0-2.1809z"/><path d="m93.7095 47.4286c-.0955-3.4954.1615-6.9908-.0735-10.4936-.044-.6535-.6168-1.5641.1175-2.2617 0-1.006 0-2.0121 0-3.0181-.0073-.2277-.022-.4479-.0146-.6756.0293-.6756-.0294-1.3879-.8886-1.3585-.9252.0294-2.2544-.5654-2.5555.9399-.5874 2.9227-1.6816 5.6985-2.3718 8.8708-.2277-.5141-.3746-.7858-.4553-1.0722-.7417-2.6362-1.454-5.2798-2.203-7.916-.4553-1.5935-1.7551-.6903-2.6583-.8005-.962-.1175-.5434.7711-.5581 1.197-.0514 2.0561-.022 4.1122-.0147 6.1684.0074 3.7451.0441 7.4975.0147 11.2426-.0073.6976.235.8812.8518.8371.7123-.0514 1.454.1469 2.1149-.2717.4553-.514.1909-1.1382.2497-1.711.1468-1.4393-.2864-2.9079.235-4.3252.2276.8886.4185 1.7918.6976 2.6656.3157.9914 1.1749.9033 1.99.9106.7784.0073 1.0428-.3158 1.2557-1.0868.2277-.8445.2497-1.8432 1.0501-2.5849.0734.8592-.1101 1.7845.2644 2.2985.4993.6903.4406.962.0073 1.6229-.4259.6535-.4846 1.7771.0367 2.2911.5287.5287 1.5862.279 2.3646.1322.8885-.1616.5581-1.0281.5434-1.6009zm-8.5917-4.4941c-.0073.1763-.0073.3452-.0073.5214-.0514-.1909-.1028-.3892.0073-.5214z"/><path d="m192.279 37.5666c-.03-2.3792.22-4.7731-.228-7.145.331-.2937.118-.448-.147-.6022-.33-.1909-.602-.2496-.697.235-.279.3745-.676.4113-1.095.3819-.08-.1028-.161-.213-.242-.3158-.022-.3818-.213-.6095-.595-.4846-.389.1321.118.3231.008.4993-.316.4993-.133 1.0574-.155 1.5862-.095 2.0267.162 4.0682-.139 6.0949-.72-.022-1.447-.044-2.166-.0661 0-.8665.044-1.733-.008-2.5995-.102-1.6669.287-3.3559-.213-5.0008-.969-.9473-2.041-.6536-3.128-.2717-.294.3011-.22.6829-.22 1.0354v16.8603c0 .3598-.074.7416.227 1.0354 1.08.3524 2.152.6755 3.114-.2717.338-.5434.33-1.0868.007-1.6376-.183-1.006-.088-2.0194-.007-3.0255.47-.9472.103-1.9606.22-2.9299.786-.3158 1.469.1615 2.196.2864.095.4332.14.8738.154 1.3071-.037-.4406-.081-.8739-.154-1.3071.132 1.7036-.257 3.4293.22 5.1109-.271.984.03 1.5788 1.124 1.6302.103.0074.198.0147.301.022.242.426.213 1.2558.933 1.0355.572-.1763.726-.8298.719-1.4907-.029-3.3192.015-6.6457-.029-9.9723z"/><path d="m172.253 30.5683c-.102-.5434-.235-1.1235-.962-.9473-.668.1542-1.307-.0587-1.96.0073-.705.984-.206 2.0855-.316 3.1283-.154.7123.477 1.3438.191 2.0635-.565.7416.132 1.7256-.455 2.46-.103-.191-.243-.3819-.309-.5875-.609-1.9607-1.204-3.9213-1.799-5.882-.161-.536-.345-1.1088-1.065-.9252-.697.1762-1.373-.0588-2.056-.0074-.55 2.0047-.382 4.0095-.08 6.0215.198.2497-.133.683.293.8519.03.0807.044.1615.03.2496-.793.8372.066 1.8726-.331 2.7538-.426.6755-.22 1.4246-.198 2.1295.088 2.3058-.294 4.619.191 6.9174.962.4553 1.924.4626 2.886 0 .426-1.1896.088-2.4233.198-3.6349.125-1.3438-.257-2.7097.228-4.0315.359 2.1002 1.402 3.9948 1.769 6.1096.316 1.8359.603 1.8799 2.637 1.8652.771-.0073 1.057-.257 1.05-1.0134-.022-2.3645.117-4.7437-.059-7.0936-.081-1.0501.411-2.1369-.169-3.1503.441-.4699.118-.793-.213-1.1088.676-.3378.184-1.0648.507-1.5201-.008-1.5494-.008-3.1062-.008-4.6556zm-5.918 10.8461v.4626c-.037-.1616-.059-.3231 0-.4626z"/><path d="m113.786 32.2134c-.286-1.3732-.8-2.5628-2.467-2.5995-1.821-.0367-3.65-.0147-5.471 0-.382 0-.845-.0441-.889.5507-.146.6683-.051 1.3512-.066 2.0268-.08 2.4747.147 4.9641-.117 7.4387.11 1.5789.11 3.1577 0 4.7291.191.8959.183 1.7845 0 2.6804.125 2.0634.125 2.0634 2.328 2.0634h3.422c2.526 0 3.187-.6756 3.201-3.2384.015-4.0168.044-8.0409.066-12.0577-.205-.5434-.161-1.0648-.007-1.5935zm-2.651 11.529c-.022.0734-.051.1102-.081.1102-.007.2717 0 .536-.022.8077-.132 1.689-1.153 2.3132-2.709 1.6743-.595-.2423-.382-.7784-.382-1.1823-.015-3.1503 0-6.3005.007-9.4508 0-.3672.015-.7344-.022-1.0942-.206-1.9019.529-2.5187 2.313-1.99.61.1836.411.6389.426.9987.081 2.3939-.066 4.8172.294 7.1671.147.9546-.654 1.8798.088 2.739.088.0734.117.1469.088.2203z"/><path d="m133.694 41.6054c0-3.5394.139-7.0863-.081-10.6257-.83-1.1162-1.917-1.5421-3.319-1.3953-1.043.1028-2.1.0074-3.15.0221-1.425.022-2.247.8077-2.255 2.2323-.022 5.0669-.029 10.1338-.022 15.2007 0 1.2263.771 2.0047 2.005 2.0414 1.189.0367 2.386-.0881 3.561.0441 1.374.1542 2.35-.3378 3.121-1.4099.345-2.0341.14-4.0756.14-6.1097zm-3.077.5948c.088.1396.162.2864.22.448-.051 1.0574.088 2.1295-.242 3.1649-.705.6977-1.652.3966-2.357.2791-.646-.1102-.331-1.0942-.331-1.711.015-2.5041.044-5.0008-.132-7.4975-.081-1.197.015-2.416.147-3.6056.139-1.219 1.146-.47 1.74-.6242.558-.1468.977.0294.926.7637-.052.705-.03 4.0242.168 4.8613-.176.4112.059 1.006.074 1.4393-.044.3672.088.7417-.037 1.1088-.404.4039-.161.9033-.176 1.3732z"/><path d="m212.348 46.8706c.007-2.1148-.007-4.2224-.015-6.3372 0-1.8946 0-3.7819 0-5.6764 0-.8812-.007-1.7698-.007-2.651-.022-1.3144.117-2.6215-1.939-2.5407-1.02.044-1.454.1835-1.322 1.3144.045.4039.023.8151.03 1.2263 0 .727-.007 1.4614-.007 2.1884 0 .5801-.008 1.1602-.008 1.7403 0 .514.008 1.0354.008 1.5495v5.5588c.058.7564-.25 1.5421.198 2.2618-.566 1.5861-1.741.771-2.725.6902 0-1.9166.008-3.8405.008-5.7571 0-.5728 0-1.1382 0-1.711 0-1.5347 0-3.0622 0-4.5969-.022-1.1823-.052-2.3719-.052-3.5542 0-.4332 0-.9546-.521-.9399-.822.0294-1.704-.3672-2.475.2423-.345.8225-.345 1.6376 0 2.46 0 .2791-.007.5581-.007.8298-.213.2203-.213.492-.213.7637v12.8875c0 .3158-.029.6462.25.8886.492 1.1455 1.38 1.4613 2.577 1.4025.764-.044 1.491-.0734 2.122-.5434.147.8225.595.2571.933.2056 1.153.448 2.056-.022 2.886-.7857.396-.2937.279-.727.279-1.1162z"/><path d="m71.7603 47.7077c-.235-2.2397-.8959-4.406-1.0794-6.6604-.1616-1.99-.5141-3.9654-.7858-5.9481-.3231-.5213.0074-1.1162-.2129-1.6522-.2791-.7343-.2864-1.5054-.3892-2.2691-.1836-1.4026-1.8799-2.1516-3.1209-1.476-.3672.1983-.2644.492-.3305.7931-.5214 2.2397-.6682 4.5308-.9693 6.7999-.2864.3378.6682.8738-.1836 1.1162-.2056 1.3658-.4112 2.7317-.6168 4.0902-.2203.5287.1175 1.1309-.213 1.6449-.6021 1.3879-.257 2.952-.8077 4.3472-.0514.1322.044.47.0954.4774.8592.0514 1.7257.1688 2.5702.066.6976-.0881.5801-.7857.6315-1.3217.0734-.7711.1395-1.5054 1.2851-1.3953 1.1162.1028.962.8959.9766 1.5715.0074.3965-.2423.8445.3085 1.0281.8812.279 1.8211.3231 2.6803.0367.4553-.1616.2056-.8151.1615-1.2484zm-3.9874-4.4207c-.1248.0735-.3965.0735-.4993-.0147-.2791-.2423-.1322-.6094-.1028-.9032.0514-.4406.1982-.8738.301-1.3144.0588.0073.1175.022.1763.0293.0807.448.1909.8886.2423 1.3365.0441.2937.235.6462-.1175.8665z"/><path d="m153.007 47.7077c-.235-2.2397-.896-4.406-1.08-6.6604-.161-1.99-.514-3.9654-.786-5.9481-.066-.5507.184-1.1455-.213-1.6522-.279-.7343-.286-1.5054-.389-2.2691-.183-1.4026-1.88-2.1516-3.121-1.476-.367.1983-.264.492-.33.7931-.521 2.2397-.668 4.5308-.969 6.7999-.294.3378-.162.7417-.184 1.1162-.206 1.3658-.411 2.7317-.617 4.0902-.396.5067-.139 1.0942-.213 1.6449-.602 1.3879-.257 2.952-.808 4.3472-.051.1322.045.47.096.4774.859.0514 1.726.1688 2.57.066.698-.0881.58-.7857.632-1.3217.073-.7711.139-1.5054 1.285-1.3953 1.116.1028.962.8959.976 1.5715.008.3965-.242.8445.309 1.0281.881.279 1.821.3231 2.68.0367.448-.1616.206-.8151.162-1.2484zm-4.215-4.3693c-.287.0221-.404-.1101-.412-.3892-.022-.6462.133-1.2557.478-2.1809.147.9105.257 1.5347.337 2.1589.045.2864-.139.3965-.403.4112z"/><path d="m228.011 29.9149c-.448 1.5935-1.336 3.1209-.536 4.8687.154.3304-.294.492-.558.6462-.088-.0221-.176-.0514-.264-.0735-.235-.6095-.544-1.1382-.654-1.8431-.191-1.2411.294-2.6657-.756-3.7304-.918-.213-1.836-.4553-2.717.1395.044.5287.051 1.0721.132 1.5935.668 4.0829 2.409 7.9381 2.416 12.1899 0 1.2263.147 2.4894.125 3.7451-.316.4553-.323.9032.007 1.3585 2.401.8959 3.062.4259 3.055-2.0341-.007-2.1589-.257-4.3399.213-6.4842.396-.1395.338-.4846.352-.793.727-3.187 1.447-6.374 2.174-9.561-.999-.5508-1.99-.5214-2.989-.0221z"/></g></svg>

<svg width="231" height="59" viewBox="0 0 231 59" fill="none" xmlns="http://www.w3.org/2000/svg">
<path d="M17.3319 30.0027L13.4398 50.0418C13.4432 50.0418 13.4467 50.0418 13.4501 50.0418C16.5845 49.6905 19.1574 47.3966 19.7705 44.3001L22.1712 32.1692C22.24 31.8179 22.3158 31.4838 22.395 31.1497C21.3617 30.354 20.0495 29.9476 18.4478 29.9476C18.0655 29.9476 17.697 29.9683 17.3319 30.0027Z" fill="white"/>
<path d="M36.5409 8.9131C33.5099 8.9131 30.9025 11.0658 30.3308 14.0452L26.759 32.6824C25.9324 30.6227 24.7785 29.0383 23.3009 27.9361C23.2975 27.9361 23.2975 27.9327 23.294 27.9327C24.4789 24.6985 28.3778 0.0439453 28.3778 0.0439453C25.3606 0.0439453 22.7705 2.18287 22.1953 5.14156L18.0896 26.2863C17.9829 26.2829 17.883 26.276 17.7762 26.276C13.55 26.276 9.85767 27.8328 6.70611 30.943C3.55111 34.0567 1.49828 37.935 0.54076 42.5883C0.454652 43.1394 0.344433 43.8903 0.206659 44.834C0.0688861 45.7778 0 46.6354 0 47.4001C0 51.0097 1.00919 53.8031 3.02757 55.7801C4.89784 57.6056 7.4122 58.5218 10.5775 58.5218C15.2308 58.5218 19.4019 56.2072 23.0977 51.5746L21.7923 57.9776C21.7957 57.9776 21.7992 57.9776 21.8026 57.9776C24.9473 57.6435 27.5305 55.3392 28.1333 52.2324L36.5409 8.9131ZM25.2607 39.3851C25.2194 39.8191 25.1539 40.4942 25.0678 41.4069C24.3239 45.2301 23.0598 48.4265 21.2756 50.9959C18.9817 54.3507 16.1126 56.0281 12.6751 56.0281C10.2331 56.0281 8.40417 55.1774 7.19521 53.4793C6.15502 51.9913 5.63493 50.0591 5.63493 47.679C5.63493 47.2313 5.69693 46.5321 5.82781 45.578C5.95525 44.6239 6.06202 43.9316 6.14469 43.508C6.97477 39.3231 8.19406 36.051 9.80945 33.6951C11.7555 30.8914 14.3353 29.3518 17.5489 29.0659C17.914 29.0349 18.286 29.0142 18.6683 29.0142C20.2699 29.0142 21.5822 29.4206 22.6155 30.2163C23.1321 30.6124 23.5833 31.098 23.9588 31.6905C24.8715 33.113 25.3296 35.09 25.3296 37.6147C25.3262 38.3621 25.3055 38.9511 25.2607 39.3851Z" fill="white"/>
<path d="M49.2531 38.39C48.9153 35.8125 49.7157 33.213 49.0548 30.6428C48.8932 30.0186 49.1723 29.6441 49.914 29.5854C51.6617 29.4532 51.9995 29.6588 52.0362 31.3698C52.1537 36.7157 52.2344 42.0616 52.3005 47.4076C52.3226 49.1553 51.9701 49.3829 50.2518 49.0231C49.6349 48.8983 49.3779 48.6265 49.3779 47.951C49.3779 45.491 49.2971 43.0309 49.2531 40.5709C49.1356 39.8513 49.1356 39.117 49.2531 38.39Z" fill="white"/>
<path d="M93.7095 47.4286C93.614 43.9332 93.871 40.4378 93.636 36.935C93.592 36.2815 93.0192 35.3709 93.7535 34.6733C93.7535 33.6673 93.7535 32.6612 93.7535 31.6552C93.7462 31.4275 93.7315 31.2073 93.7389 30.9796C93.7682 30.304 93.7095 29.5917 92.8503 29.6211C91.9251 29.6505 90.5959 29.0557 90.2948 30.561C89.7074 33.4837 88.6132 36.2595 87.923 39.4318C87.6953 38.9177 87.5484 38.646 87.4677 38.3596C86.726 35.7234 86.0137 33.0798 85.2647 30.4436C84.8094 28.8501 83.5096 29.7533 82.6064 29.6431C81.6444 29.5256 82.063 30.4142 82.0483 30.8401C81.9969 32.8962 82.0263 34.9523 82.0336 37.0085C82.041 40.7536 82.0777 44.506 82.0483 48.2511C82.041 48.9487 82.2833 49.1323 82.9001 49.0882C83.6124 49.0368 84.3541 49.2351 85.015 48.8165C85.4703 48.3025 85.2059 47.6783 85.2647 47.1055C85.4115 45.6662 84.9783 44.1976 85.4997 42.7803C85.7273 43.6689 85.9182 44.5721 86.1973 45.4459C86.513 46.4373 87.3722 46.3492 88.1873 46.3565C88.9657 46.3638 89.2301 46.0407 89.443 45.2697C89.6707 44.4252 89.6927 43.4265 90.4931 42.6848C90.5665 43.544 90.383 44.4693 90.7575 44.9833C91.2568 45.6736 91.1981 45.9453 90.7648 46.6062C90.3389 47.2597 90.2802 48.3833 90.8015 48.8973C91.3302 49.426 92.3877 49.1763 93.1661 49.0295C94.0546 48.8679 93.7242 48.0014 93.7095 47.4286ZM85.1178 42.9345C85.1105 43.1108 85.1105 43.2797 85.1105 43.4559C85.0591 43.265 85.0077 43.0667 85.1178 42.9345Z" fill="white"/>
<path d="M192.279 37.5666C192.249 35.1874 192.499 32.7935 192.051 30.4216C192.382 30.1279 192.169 29.9736 191.904 29.8194C191.574 29.6285 191.302 29.5698 191.207 30.0544C190.928 30.4289 190.531 30.4657 190.112 30.4363C190.032 30.3335 189.951 30.2233 189.87 30.1205C189.848 29.7387 189.657 29.511 189.275 29.6359C188.886 29.768 189.393 29.959 189.283 30.1352C188.967 30.6345 189.15 31.1926 189.128 31.7214C189.033 33.7481 189.29 35.7896 188.989 37.8163C188.269 37.7943 187.542 37.7723 186.823 37.7502C186.823 36.8837 186.867 36.0172 186.815 35.1507C186.713 33.4838 187.102 31.7948 186.602 30.1499C185.633 29.2026 184.561 29.4963 183.474 29.8782C183.18 30.1793 183.254 30.5611 183.254 30.9136C183.254 36.5312 183.254 42.1489 183.254 47.7739C183.254 48.1337 183.18 48.5155 183.481 48.8093C184.561 49.1617 185.633 49.4848 186.595 48.5376C186.933 47.9942 186.925 47.4508 186.602 46.9C186.419 45.894 186.514 44.8806 186.595 43.8745C187.065 42.9273 186.698 41.9139 186.815 40.9446C187.601 40.6288 188.284 41.1061 189.011 41.231C189.106 41.6642 189.151 42.1048 189.165 42.5381C189.128 42.0975 189.084 41.6642 189.011 41.231C189.143 42.9346 188.754 44.6603 189.231 46.3419C188.96 47.3259 189.261 47.9207 190.355 47.9721C190.458 47.9795 190.553 47.9868 190.656 47.9941C190.898 48.4201 190.869 49.2499 191.589 49.0296C192.161 48.8533 192.315 48.1998 192.308 47.5389C192.279 44.2197 192.323 40.8932 192.279 37.5666Z" fill="white"/>
<path d="M172.253 30.5683C172.151 30.0249 172.018 29.4448 171.291 29.621C170.623 29.7752 169.984 29.5623 169.331 29.6283C168.626 30.6123 169.125 31.7138 169.015 32.7566C168.861 33.4689 169.492 34.1004 169.206 34.8201C168.641 35.5617 169.338 36.5457 168.751 37.2801C168.648 37.0891 168.508 36.8982 168.442 36.6926C167.833 34.7319 167.238 32.7713 166.643 30.8106C166.482 30.2746 166.298 29.7018 165.578 29.8854C164.881 30.0616 164.205 29.8266 163.522 29.878C162.972 31.8827 163.14 33.8875 163.442 35.8995C163.64 36.1492 163.309 36.5825 163.735 36.7514C163.765 36.8321 163.779 36.9129 163.765 37.001C162.972 37.8382 163.831 38.8736 163.434 39.7548C163.008 40.4303 163.214 41.1794 163.236 41.8843C163.324 44.1901 162.942 46.5033 163.427 48.8017C164.389 49.257 165.351 49.2643 166.313 48.8017C166.739 47.6121 166.401 46.3784 166.511 45.1668C166.636 43.823 166.254 42.4571 166.739 41.1353C167.098 43.2355 168.141 45.1301 168.508 47.2449C168.824 49.0808 169.111 49.1248 171.145 49.1101C171.916 49.1028 172.202 48.8531 172.195 48.0967C172.173 45.7322 172.312 43.353 172.136 41.0031C172.055 39.953 172.547 38.8662 171.967 37.8528C172.408 37.3829 172.085 37.0598 171.754 36.744C172.43 36.4062 171.938 35.6792 172.261 35.2239C172.253 33.6745 172.253 32.1177 172.253 30.5683ZM166.335 41.4144C166.335 41.5686 166.335 41.7228 166.335 41.877C166.298 41.7154 166.276 41.5539 166.335 41.4144Z" fill="white"/>
<path d="M113.786 32.2134C113.5 30.8402 112.986 29.6506 111.319 29.6139C109.498 29.5772 107.669 29.5992 105.848 29.6139C105.466 29.6139 105.003 29.5698 104.959 30.1646C104.813 30.8329 104.908 31.5158 104.893 32.1914C104.813 34.6661 105.04 37.1555 104.776 39.6301C104.886 41.209 104.886 42.7878 104.776 44.3592C104.967 45.2551 104.959 46.1437 104.776 47.0396C104.901 49.103 104.901 49.103 107.104 49.103C108.242 49.103 109.38 49.103 110.526 49.103C113.052 49.103 113.713 48.4274 113.727 45.8646C113.742 41.8478 113.771 37.8237 113.793 33.8069C113.588 33.2635 113.632 32.7421 113.786 32.2134ZM111.135 43.7424C111.113 43.8158 111.084 43.8526 111.054 43.8526C111.047 44.1243 111.054 44.3886 111.032 44.6603C110.9 46.3493 109.879 46.9735 108.323 46.3346C107.728 46.0923 107.941 45.5562 107.941 45.1523C107.926 42.002 107.941 38.8518 107.948 35.7015C107.948 35.3343 107.963 34.9671 107.926 34.6073C107.72 32.7054 108.455 32.0886 110.239 32.6173C110.849 32.8009 110.65 33.2562 110.665 33.616C110.746 36.0099 110.599 38.4332 110.959 40.7831C111.106 41.7377 110.305 42.6629 111.047 43.5221C111.135 43.5955 111.164 43.669 111.135 43.7424Z" fill="white"/>
<path d="M133.694 41.6054C133.694 38.066 133.833 34.5191 133.613 30.9797C132.783 29.8635 131.696 29.4376 130.294 29.5844C129.251 29.6872 128.194 29.5918 127.144 29.6065C125.719 29.6285 124.897 30.4142 124.889 31.8388C124.867 36.9057 124.86 41.9726 124.867 47.0395C124.867 48.2658 125.638 49.0442 126.872 49.0809C128.061 49.1176 129.258 48.9928 130.433 49.125C131.807 49.2792 132.783 48.7872 133.554 47.7151C133.899 45.681 133.694 43.6395 133.694 41.6054ZM130.617 42.2002C130.705 42.3398 130.779 42.4866 130.837 42.6482C130.786 43.7056 130.925 44.7777 130.595 45.8131C129.89 46.5108 128.943 46.2097 128.238 46.0922C127.592 45.982 127.907 44.998 127.907 44.3812C127.922 41.8771 127.951 39.3804 127.775 36.8837C127.694 35.6867 127.79 34.4677 127.922 33.2781C128.061 32.0591 129.068 32.8081 129.662 32.6539C130.22 32.5071 130.639 32.6833 130.588 33.4176C130.536 34.1226 130.558 37.4418 130.756 38.2789C130.58 38.6901 130.815 39.2849 130.83 39.7182C130.786 40.0854 130.918 40.4599 130.793 40.827C130.389 41.2309 130.632 41.7303 130.617 42.2002Z" fill="white"/>
<path d="M212.348 46.8706C212.355 44.7558 212.341 42.6482 212.333 40.5334C212.333 38.6388 212.333 36.7515 212.333 34.857C212.333 33.9758 212.326 33.0872 212.326 32.206C212.304 30.8916 212.443 29.5845 210.387 29.6653C209.367 29.7093 208.933 29.8488 209.065 30.9797C209.11 31.3836 209.088 31.7948 209.095 32.206C209.095 32.933 209.088 33.6674 209.088 34.3944C209.088 34.9745 209.08 35.5546 209.08 36.1347C209.08 36.6487 209.088 37.1701 209.088 37.6842C209.088 39.5347 209.088 41.3925 209.088 43.243C209.146 43.9994 208.838 44.7851 209.286 45.5048C208.72 47.0909 207.545 46.2758 206.561 46.195C206.561 44.2784 206.569 42.3545 206.569 40.4379C206.569 39.8651 206.569 39.2997 206.569 38.7269C206.569 37.1922 206.569 35.6647 206.569 34.13C206.547 32.9477 206.517 31.7581 206.517 30.5758C206.517 30.1426 206.517 29.6212 205.996 29.6359C205.174 29.6653 204.292 29.2687 203.521 29.8782C203.176 30.7007 203.176 31.5158 203.521 32.3382C203.521 32.6173 203.514 32.8963 203.514 33.168C203.301 33.3883 203.301 33.66 203.301 33.9317C203.301 38.2276 203.301 42.5234 203.301 46.8192C203.301 47.135 203.272 47.4654 203.551 47.7078C204.043 48.8533 204.931 49.1691 206.128 49.1103C206.892 49.0663 207.619 49.0369 208.25 48.5669C208.397 49.3894 208.845 48.824 209.183 48.7725C210.336 49.2205 211.239 48.7505 212.069 47.9868C212.465 47.6931 212.348 47.2598 212.348 46.8706Z" fill="white"/>
<path d="M71.7603 47.7077C71.5253 45.468 70.8644 43.3017 70.6809 41.0473C70.5193 39.0573 70.1668 37.0819 69.8951 35.0992C69.572 34.5779 69.9025 33.983 69.6822 33.447C69.4031 32.7127 69.3958 31.9416 69.293 31.1779C69.1094 29.7753 67.4131 29.0263 66.1721 29.7019C65.8049 29.9002 65.9077 30.1939 65.8416 30.495C65.3202 32.7347 65.1734 35.0258 64.8723 37.2949C64.5859 37.6327 65.5405 38.1687 64.6887 38.4111C64.4831 39.7769 64.2775 41.1428 64.0719 42.5013C63.8516 43.03 64.1894 43.6322 63.8589 44.1462C63.2568 45.5341 63.6019 47.0982 63.0512 48.4934C62.9998 48.6256 63.0952 48.9634 63.1466 48.9708C64.0058 49.0222 64.8723 49.1396 65.7168 49.0368C66.4144 48.9487 66.2969 48.2511 66.3483 47.7151C66.4217 46.944 66.4878 46.2097 67.6334 46.3198C68.7496 46.4226 68.5954 47.2157 68.61 47.8913C68.6174 48.2878 68.3677 48.7358 68.9185 48.9194C69.7997 49.1984 70.7396 49.2425 71.5988 48.9561C72.0541 48.7945 71.8044 48.141 71.7603 47.7077ZM67.7729 43.287C67.6481 43.3605 67.3764 43.3605 67.2736 43.2723C66.9945 43.03 67.1414 42.6629 67.1708 42.3691C67.2222 41.9285 67.369 41.4953 67.4718 41.0547C67.5306 41.062 67.5893 41.0767 67.6481 41.084C67.7288 41.532 67.839 41.9726 67.8904 42.4205C67.9345 42.7142 68.1254 43.0667 67.7729 43.287Z" fill="white"/>
<path d="M153.007 47.7077C152.772 45.468 152.111 43.3017 151.927 41.0473C151.766 39.0573 151.413 37.0819 151.141 35.0992C151.075 34.5485 151.325 33.9537 150.928 33.447C150.649 32.7127 150.642 31.9416 150.539 31.1779C150.356 29.7753 148.659 29.0263 147.418 29.7019C147.051 29.9002 147.154 30.1939 147.088 30.495C146.567 32.7347 146.42 35.0258 146.119 37.2949C145.825 37.6327 145.957 38.0366 145.935 38.4111C145.729 39.7769 145.524 41.1428 145.318 42.5013C144.922 43.008 145.179 43.5955 145.105 44.1462C144.503 45.5341 144.848 47.0982 144.297 48.4934C144.246 48.6256 144.342 48.9634 144.393 48.9708C145.252 49.0222 146.119 49.1396 146.963 49.0368C147.661 48.9487 147.543 48.2511 147.595 47.7151C147.668 46.944 147.734 46.2097 148.88 46.3198C149.996 46.4226 149.842 47.2157 149.856 47.8913C149.864 48.2878 149.614 48.7358 150.165 48.9194C151.046 49.1984 151.986 49.2425 152.845 48.9561C153.293 48.7945 153.051 48.141 153.007 47.7077ZM148.792 43.3384C148.505 43.3605 148.388 43.2283 148.38 42.9492C148.358 42.303 148.513 41.6935 148.858 40.7683C149.005 41.6788 149.115 42.303 149.195 42.9272C149.24 43.2136 149.056 43.3237 148.792 43.3384Z" fill="white"/>
<path d="M228.011 29.9149C227.563 31.5084 226.675 33.0358 227.475 34.7836C227.629 35.114 227.181 35.2756 226.917 35.4298C226.829 35.4077 226.741 35.3784 226.653 35.3563C226.418 34.7468 226.109 34.2181 225.999 33.5132C225.808 32.2721 226.293 30.8475 225.243 29.7828C224.325 29.5698 223.407 29.3275 222.526 29.9223C222.57 30.451 222.577 30.9944 222.658 31.5158C223.326 35.5987 225.067 39.4539 225.074 43.7057C225.074 44.932 225.221 46.1951 225.199 47.4508C224.883 47.9061 224.876 48.354 225.206 48.8093C227.607 49.7052 228.268 49.2352 228.261 46.7752C228.254 44.6163 228.004 42.4353 228.474 40.291C228.87 40.1515 228.812 39.8064 228.826 39.498C229.553 36.311 230.273 33.124 231 29.937C230.001 29.3862 229.01 29.4156 228.011 29.9149Z" fill="white"/>
</svg>
